X: 1
T: Eleanor Plunkett
C: Turlough O'Carolan
R: waltz
S: printed page in Concord Slow Scottish Session collection
Z: 2015 John Chambers <jc:trillian.mit.edu>
N: The two parts are 6 and 10 bars long.
M: 3/4
L: 1/8
K: G
GA |\
"G"B2 B2 "Am"(3ABA | "G"G2 G2 "Am"ag |\
"C"e2 e2 ed | "G"B2 B2 "Am"AG |
EA A3 B | EA A2 :: ga |\
"G"b2 "Am"ag ed | "C"e4 ef |
"G"g2 gd (3gab | "Am"a2 "G"ba gf |\
"G"g2 "Am"ag "C"fe | "G"d2 B2 d2 |
"C"e2 g2 G2 | "G"B2 d2 (3BAG |\
"Am"EG A3 B | EA A2 :|
